archdroid-icon-theme/Archdroid-Amber/emblems/scalable/emblem-ruby.svg

<?xml version="1.0" encoding="UTF-8" standalone="no"?>
<svg
   xmlns:dc="http://purl.org/dc/elements/1.1/"
   xmlns:cc="http://creativecommons.org/ns#"
   xmlns:rdf="http://www.w3.org/1999/02/22-rdf-syntax-ns#"
   xmlns:svg="http://www.w3.org/2000/svg"
   xmlns="http://www.w3.org/2000/svg"
   xmlns:xlink="http://www.w3.org/1999/xlink"
   xmlns:sodipodi="http://sodipodi.sourceforge.net/DTD/sodipodi-0.dtd"
   xmlns:inkscape="http://www.inkscape.org/namespaces/inkscape"
   viewBox="0 0 48.13 48"
   id="svg2"
   version="1.1"
   inkscape:version="0.91 r13725"
   sodipodi:docname="emblem-ruby.svg">
  <metadata
     id="metadata230">
    <rdf:RDF>
      <cc:Work
         rdf:about="">
        <dc:format>image/svg+xml</dc:format>
        <dc:type
           rdf:resource="http://purl.org/dc/dcmitype/StillImage" />
      </cc:Work>
    </rdf:RDF>
  </metadata>
  <sodipodi:namedview
     pagecolor="#ffffff"
     bordercolor="#666666"
     borderopacity="1"
     objecttolerance="10"
     gridtolerance="10"
     guidetolerance="10"
     inkscape:pageopacity="0"
     inkscape:pageshadow="2"
     inkscape:window-width="664"
     inkscape:window-height="480"
     id="namedview228"
     showgrid="false"
     inkscape:zoom="6.606770833333333"
     inkscape:cx="1.663739201775391"
     inkscape:cy="23.99999999999999"
     inkscape:window-x="0"
     inkscape:window-y="31"
     inkscape:window-maximized="0"
     inkscape:current-layer="svg2" />
  <defs
     id="defs4">
    <linearGradient
       x1="125.44"
       y1="77.52"
       x2="279.02"
       y2="-80.39"
       id="A"
       gradientUnits="userSpaceOnUse">
      <stop
         stop-color="#bd0012"
         id="stop11" />
      <stop
         stop-color="#bd0012"
         id="stop13" />
      <stop
         offset=".07"
         stop-color="#fff"
         id="stop15" />
      <stop
         offset=".17"
         stop-color="#fff"
         id="stop17" />
      <stop
         offset=".27"
         stop-color="#c82f1c"
         id="stop19" />
      <stop
         offset=".33"
         stop-color="#820c01"
         id="stop21" />
      <stop
         offset=".46"
         stop-color="#a31601"
         id="stop23" />
      <stop
         offset=".72"
         stop-color="#b31301"
         id="stop25" />
      <stop
         offset=".99"
         stop-color="#e82609"
         id="stop27" />
      <stop
         offset="1"
         stop-color="#e82609"
         id="stop29" />
    </linearGradient>
    <linearGradient
       x1="3.903"
       y1="113.55"
       x2="7.17"
       y2="146.26"
       id="9"
       gradientUnits="userSpaceOnUse">
      <stop
         stop-color="#fff"
         id="stop32" />
      <stop
         stop-color="#fff"
         id="stop34" />
      <stop
         offset=".31"
         stop-color="#de4024"
         id="stop36" />
      <stop
         offset=".99"
         stop-color="#bf190b"
         id="stop38" />
      <stop
         offset="1"
         stop-color="#bf190b"
         id="stop40" />
    </linearGradient>
    <linearGradient
       x1="298.64"
       y1="-67.782"
       x2="336.04"
       y2="-51.27"
       id="H"
       gradientUnits="userSpaceOnUse">
      <stop
         stop-color="#b31000"
         id="stop43" />
      <stop
         stop-color="#b31000"
         id="stop45" />
      <stop
         offset=".44"
         stop-color="#910f08"
         id="stop47" />
      <stop
         offset=".99"
         stop-color="#791c12"
         id="stop49" />
      <stop
         offset="1"
         stop-color="#791c12"
         id="stop51" />
    </linearGradient>
    <linearGradient
       x1="243.07"
       y1="93.45"
       x2="196.82"
       y2="82.04"
       id="B"
       gradientUnits="userSpaceOnUse">
      <stop
         stop-color="#8c0c01"
         id="stop54" />
      <stop
         stop-color="#8c0c01"
         id="stop56" />
      <stop
         offset=".54"
         stop-color="#990c00"
         id="stop58" />
      <stop
         offset=".99"
         stop-color="#a80d0e"
         id="stop60" />
      <stop
         offset="1"
         stop-color="#a80d0e"
         id="stop62" />
    </linearGradient>
    <linearGradient
       x1="147.1"
       y1="25.521"
       x2="156.31"
       y2="65.22"
       id="7"
       gradientUnits="userSpaceOnUse">
      <stop
         stop-color="#fff"
         id="stop65" />
      <stop
         stop-color="#fff"
         id="stop67" />
      <stop
         offset=".18"
         stop-color="#e46342"
         id="stop69" />
      <stop
         offset=".4"
         stop-color="#c82410"
         id="stop71" />
      <stop
         offset=".99"
         stop-color="#a80d00"
         id="stop73" />
      <stop
         offset="1"
         stop-color="#a80d00"
         id="stop75" />
    </linearGradient>
    <linearGradient
       x1="170.67"
       y1="119.76"
       x2="153.99"
       y2="63.16"
       id="G"
       gradientUnits="userSpaceOnUse">
      <stop
         stop-color="#8b2114"
         id="stop78" />
      <stop
         stop-color="#8b2114"
         id="stop80" />
      <stop
         offset=".43"
         stop-color="#9e100a"
         id="stop82" />
      <stop
         offset=".99"
         stop-color="#b3100c"
         id="stop84" />
      <stop
         offset="1"
         stop-color="#b3100c"
         id="stop86" />
    </linearGradient>
    <linearGradient
       x1="322.53"
       y1="37.935"
       x2="281.43"
       y2="1.104"
       id="C"
       gradientUnits="userSpaceOnUse">
      <stop
         stop-color="#7e110b"
         id="stop89" />
      <stop
         stop-color="#7e110b"
         id="stop91" />
      <stop
         offset=".99"
         stop-color="#9e0c00"
         id="stop93" />
      <stop
         offset="1"
         stop-color="#9e0c00"
         id="stop95" />
    </linearGradient>
    <linearGradient
       x1="337.62"
       y1="-29.643"
       x2="317.15"
       y2="-51.53"
       id="D"
       gradientUnits="userSpaceOnUse">
      <stop
         stop-color="#79130d"
         id="stop98" />
      <stop
         stop-color="#79130d"
         id="stop100" />
      <stop
         offset=".99"
         stop-color="#9e120b"
         id="stop102" />
      <stop
         offset="1"
         stop-color="#9e120b"
         id="stop104" />
    </linearGradient>
    <linearGradient
       x1="118.98"
       y1="11.542"
       x2="158.67"
       y2="-8.305"
       id="8"
       gradientUnits="userSpaceOnUse">
      <stop
         stop-color="#fff"
         id="stop107" />
      <stop
         stop-color="#fff"
         id="stop109" />
      <stop
         offset=".54"
         stop-color="#c81f11"
         id="stop111" />
      <stop
         offset=".99"
         stop-color="#bf0905"
         id="stop113" />
      <stop
         offset="1"
         stop-color="#bf0905"
         id="stop115" />
    </linearGradient>
    <linearGradient
       x1="174.07"
       y1="215.55"
       x2="132.28"
       y2="141.75"
       id="2"
       gradientUnits="userSpaceOnUse">
      <stop
         stop-color="#fb7655"
         id="stop124" />
      <stop
         stop-color="#fb7655"
         id="stop126" />
      <stop
         offset=".41"
         stop-color="#e42b1e"
         id="stop128" />
      <stop
         offset=".99"
         stop-color="#900"
         id="stop130" />
      <stop
         offset="1"
         stop-color="#900"
         id="stop132" />
    </linearGradient>
    <linearGradient
       x1="96.13"
       y1="76.72"
       x2="99.21"
       y2="132.1"
       id="6"
       gradientUnits="userSpaceOnUse">
      <stop
         stop-color="#fff"
         id="stop135" />
      <stop
         stop-color="#fff"
         id="stop137" />
      <stop
         offset=".23"
         stop-color="#e4714e"
         id="stop139" />
      <stop
         offset=".56"
         stop-color="#be1a0d"
         id="stop141" />
      <stop
         offset=".99"
         stop-color="#a80d00"
         id="stop143" />
      <stop
         offset="1"
         stop-color="#a80d00"
         id="stop145" />
    </linearGradient>
    <linearGradient
       x1="38.696"
       y1="127.39"
       x2="47.05"
       y2="181.66"
       id="5"
       gradientUnits="userSpaceOnUse">
      <stop
         stop-color="#fff"
         id="stop148" />
      <stop
         stop-color="#fff"
         id="stop150" />
      <stop
         offset=".23"
         stop-color="#e57252"
         id="stop152" />
      <stop
         offset=".46"
         stop-color="#de3b20"
         id="stop154" />
      <stop
         offset=".99"
         stop-color="#a60003"
         id="stop156" />
      <stop
         offset="1"
         stop-color="#a60003"
         id="stop158" />
    </linearGradient>
    <linearGradient
       x1="194.9"
       y1="153.56"
       x2="141.03"
       y2="117.41"
       id="3"
       gradientUnits="userSpaceOnUse">
      <stop
         stop-color="#871101"
         id="stop161" />
      <stop
         stop-color="#871101"
         id="stop163" />
      <stop
         offset=".99"
         stop-color="#911209"
         id="stop165" />
      <stop
         offset="1"
         stop-color="#911209"
         id="stop167" />
    </linearGradient>
    <linearGradient
       x1="151.8"
       y1="217.79"
       x2="97.93"
       y2="181.64"
       id="4"
       gradientUnits="userSpaceOnUse"
       xlink:href="#3" />
    <radialGradient
       cx="218.09"
       cy="68.17"
       r="66.944"
       id="1"
       gradientUnits="userSpaceOnUse">
      <stop
         stop-color="#a30c00"
         id="stop171" />
      <stop
         stop-color="#a30c00"
         id="stop173" />
      <stop
         offset=".99"
         stop-color="#800e08"
         id="stop175" />
      <stop
         offset="1"
         stop-color="#800e08"
         id="stop177" />
    </radialGradient>
    <radialGradient
       cx="218.09"
       cy="68.17"
       r="66.944"
       id="F"
       xlink:href="#1"
       gradientUnits="userSpaceOnUse" />
    <radialGradient
       cx="287.83"
       cy="1.808"
       r="50.36"
       id="0"
       gradientUnits="userSpaceOnUse">
      <stop
         stop-color="#a80d00"
         id="stop181" />
      <stop
         stop-color="#a80d00"
         id="stop183" />
      <stop
         offset=".99"
         stop-color="#7e0e08"
         id="stop185" />
      <stop
         offset="1"
         stop-color="#7e0e08"
         id="stop187" />
    </radialGradient>
    <radialGradient
       cx="287.83"
       cy="1.808"
       r="50.36"
       id="E"
       xlink:href="#0"
       gradientUnits="userSpaceOnUse" />
    <linearGradient
       inkscape:collect="always"
       xlink:href="#3"
       id="linearGradient4358"
       gradientUnits="userSpaceOnUse"
       x1="194.9"
       y1="153.56"
       x2="141.03"
       y2="117.41" />
  </defs>
  <g
     transform="matrix(0.2024486160106489,0,0,0.2024486160106488,-25.14096175062837,19.70580200872214)"
     id="g190"
     style="fill-rule:evenodd">
    <path
       transform="translate(144,-77.57999999999999)"
       d="M 198.13,39.95 153.5,130.41 40.38,197.58 186.85,187.64 Z"
       id="path192"
       style="fill:url(#2)"
       inkscape:connector-curvature="0" />
    <path
       transform="translate(144,-77.57999999999999)"
       d="m 140.21,145.93 46.88,41.61 -12.59,-86.89 z"
       id="path194"
       style="fill:url(#linearGradient4358)"
       inkscape:connector-curvature="0" />
    <path
       transform="translate(144,-77.57999999999999)"
       d="M 40.87,197.39 187.26,187.54 l -92.23,-7.24 z"
       id="path196"
       style="fill:url(#4)"
       inkscape:connector-curvature="0" />
    <path
       transform="translate(144,-77.57999999999999)"
       d="M 13.34,132.77 41,197.41 64.04,121.93 Z"
       id="path198"
       style="fill:url(#5)"
       inkscape:connector-curvature="0" />
    <path
       transform="translate(144,-77.57999999999999)"
       d="M 58.33,120.01 140.2,146.18 119,63.14 Z"
       id="path200"
       style="fill:url(#6)"
       inkscape:connector-curvature="0" />
    <path
       transform="translate(144,-77.57999999999999)"
       d="M 120,69.09999999999999 193.32,64.30999999999998 135.97,17.46999999999998 Z"
       id="path202"
       style="fill:url(#7)"
       inkscape:connector-curvature="0" />
    <path
       transform="translate(144,-77.57999999999999)"
       d="M 111.49,0.52 166.5,0.77 132.77,19.41 Z"
       id="path204"
       style="fill:url(#8)"
       inkscape:connector-curvature="0" />
    <path
       transform="translate(144,-77.57999999999999)"
       d="M 2.7,101.62 0,158.09 14.13,132.32 Z"
       id="path206"
       style="fill:url(#9)"
       inkscape:connector-curvature="0" />
    <path
       d="m 145.94,23.07 11.5,32.62 49.97,-11.211 57.05,-53.020000000000003 16.1,-51.140000000000007 L 255.209,-77.581 l -43.1,16.12999999999999 c -13.579,12.63 -39.929,37.62 -40.879,38.09000000000001 -0.94,0.48 -17.4,31.589999999999996 -25.29,46.42999999999999"
       id="path208"
       inkscape:connector-curvature="0"
       style="fill:#ffffff" />
    <path
       d="M 186.32,-35.53 C 215.75,-64.71 253.69,-81.95 268.25,-67.26 c 14.551,14.69 -0.88,50.39 -30.31,79.56 -29.43,29.17 -66.9,47.36 -81.45,32.67 C 141.93,30.29 156.89,-6.36 186.32,-35.53"
       id="path210"
       style="fill:url(#A)"
       inkscape:connector-curvature="0" />
    <path
       d="M 185,119.8 207.86,44.08 283.78,68.46999999999999 C 256.33,94.20999999999999 225.8,115.97 185,119.8"
       id="path212"
       style="fill:url(#B)"
       inkscape:connector-curvature="0" />
    <path
       d="M 264.56,-8.689999999999999 284.05,68.51 c 22.93,-24.10999999999999 43.51,-50.03 53.589,-82.09 l -73.08,4.890000000000003"
       id="path214"
       style="fill:url(#C)"
       inkscape:connector-curvature="0" />
    <path
       d="m 337.44,-13.19 c 7.8,-23.54 9.6,-57.31 -27.18,-63.58 L 280.08,-60.1 337.44,-13.19"
       id="path216"
       style="fill:url(#D)"
       inkscape:connector-curvature="0" />
    <path
       d="M 144,80.17 C 145.08,119.021 173.11,119.6 185.05,119.941 L 157.47,55.53100000000001 144,80.171"
       id="path218"
       inkscape:connector-curvature="0"
       style="fill:#9e1209" />
    <path
       d="M 264.67,-8.57 C 282.29,2.26 317.8,24.01 318.521,24.41 c 1.1190000000001,0.62999999999999 15.31,-23.9300000000000032 18.5300000000001,-37.81000000000001 l -72.38,4.830000000000004"
       id="path220"
       style="fill:url(#E)"
       inkscape:connector-curvature="0" />
    <path
       d="M 207.83,44.08 238.39,103.04 c 18.07,-9.80000000000001 32.22,-21.74000000000002 45.18,-34.53000000000002 l -75.74,-24.43"
       id="path222"
       style="fill:url(#F)"
       inkscape:connector-curvature="0" />
    <path
       d="m 157.35,55.61 -4.33,51.56 c 8.17,11.16 19.41,12.13 31.2,11.26 -8.53,-21.23 -25.57,-63.68 -26.87,-62.82"
       id="path224"
       style="fill:url(#G)"
       inkscape:connector-curvature="0" />
    <path
       d="m 279.9,-59.97 60.71,8.52 c -3.24,-13.73 -13.19,-22.59 -30.15,-25.36 l -30.56,16.84"
       id="path226"
       style="fill:url(#H)"
       inkscape:connector-curvature="0" />
  </g>
</svg>

<svg xmlns="http://www.w3.org/2000/svg" xmlns:xlink="http://www.w3.org/1999/xlink" viewBox="0 0 48.13 48"><defs><linearGradient x1="118.98" y1="11.542" x2="158.67" y2="-8.305" id="8" gradientUnits="userSpaceOnUse"><stop stop-color="#fff"/><stop stop-color="#fff"/><stop offset=".54" stop-color="#c81f11"/><stop offset=".99" stop-color="#bf0905"/><stop offset="1" stop-color="#bf0905"/></linearGradient><linearGradient x1="337.62" y1="-29.643" x2="317.15" y2="-51.53" id="A" gradientUnits="userSpaceOnUse"><stop stop-color="#79130d"/><stop stop-color="#79130d"/><stop offset=".99" stop-color="#9e120b"/><stop offset="1" stop-color="#9e120b"/></linearGradient><linearGradient x1="3.903" y1="113.55" x2="7.17" y2="146.26" id="7" gradientUnits="userSpaceOnUse"><stop stop-color="#fff"/><stop stop-color="#fff"/><stop offset=".31" stop-color="#de4024"/><stop offset=".99" stop-color="#bf190b"/><stop offset="1" stop-color="#bf190b"/></linearGradient><linearGradient xlink:href="#E" id="B" gradientUnits="userSpaceOnUse" x1="194.9" y1="153.56" x2="141.03" y2="117.41"/><linearGradient x1="96.13" y1="76.72" x2="99.21" y2="132.1" id="D" gradientUnits="userSpaceOnUse"><stop stop-color="#fff"/><stop stop-color="#fff"/><stop offset=".23" stop-color="#e4714e"/><stop offset=".56" stop-color="#be1a0d"/><stop offset=".99" stop-color="#a80d00"/><stop offset="1" stop-color="#a80d00"/></linearGradient><linearGradient x1="194.9" y1="153.56" x2="141.03" y2="117.41" id="E" gradientUnits="userSpaceOnUse"><stop stop-color="#871101"/><stop stop-color="#871101"/><stop offset=".99" stop-color="#911209"/><stop offset="1" stop-color="#911209"/></linearGradient><linearGradient x1="151.8" y1="217.79" x2="97.93" y2="181.64" id="C" gradientUnits="userSpaceOnUse" xlink:href="#E"/><linearGradient x1="38.696" y1="127.39" x2="47.05" y2="181.66" id="9" gradientUnits="userSpaceOnUse"><stop stop-color="#fff"/><stop stop-color="#fff"/><stop offset=".23" stop-color="#e57252"/><stop offset=".46" stop-color="#de3b20"/><stop offset=".99" stop-color="#a60003"/><stop offset="1" stop-color="#a60003"/></linearGradient><linearGradient x1="322.53" y1="37.935" x2="281.43" y2="1.104" id="0" gradientUnits="userSpaceOnUse"><stop stop-color="#7e110b"/><stop stop-color="#7e110b"/><stop offset=".99" stop-color="#9e0c00"/><stop offset="1" stop-color="#9e0c00"/></linearGradient><linearGradient x1="170.67" y1="119.76" x2="153.99" y2="63.16" id="6" gradientUnits="userSpaceOnUse"><stop stop-color="#8b2114"/><stop stop-color="#8b2114"/><stop offset=".43" stop-color="#9e100a"/><stop offset=".99" stop-color="#b3100c"/><stop offset="1" stop-color="#b3100c"/></linearGradient><linearGradient x1="174.07" y1="215.55" x2="132.28" y2="141.75" id="2" gradientUnits="userSpaceOnUse"><stop stop-color="#fb7655"/><stop stop-color="#fb7655"/><stop offset=".41" stop-color="#e42b1e"/><stop offset=".99" stop-color="#900"/><stop offset="1" stop-color="#900"/></linearGradient><linearGradient x1="298.64" y1="-67.782" x2="336.04" y2="-51.27" id="1" gradientUnits="userSpaceOnUse"><stop stop-color="#b31000"/><stop stop-color="#b31000"/><stop offset=".44" stop-color="#910f08"/><stop offset=".99" stop-color="#791c12"/><stop offset="1" stop-color="#791c12"/></linearGradient><linearGradient x1="147.1" y1="25.521" x2="156.31" y2="65.22" id="5" gradientUnits="userSpaceOnUse"><stop stop-color="#fff"/><stop stop-color="#fff"/><stop offset=".18" stop-color="#e46342"/><stop offset=".4" stop-color="#c82410"/><stop offset=".99" stop-color="#a80d00"/><stop offset="1" stop-color="#a80d00"/></linearGradient><linearGradient x1="125.44" y1="77.52" x2="279.02" y2="-80.39" id="3" gradientUnits="userSpaceOnUse"><stop stop-color="#bd0012"/><stop stop-color="#bd0012"/><stop offset=".07" stop-color="#fff"/><stop offset=".17" stop-color="#fff"/><stop offset=".27" stop-color="#c82f1c"/><stop offset=".33" stop-color="#820c01"/><stop offset=".46" stop-color="#a31601"/><stop offset=".72" stop-color="#b31301"/><stop offset=".99" stop-color="#e82609"/><stop offset="1" stop-color="#e82609"/></linearGradient><linearGradient x1="243.07" y1="93.45" x2="196.82" y2="82.04" id="4" gradientUnits="userSpaceOnUse"><stop stop-color="#8c0c01"/><stop stop-color="#8c0c01"/><stop offset=".54" stop-color="#990c00"/><stop offset=".99" stop-color="#a80d0e"/><stop offset="1" stop-color="#a80d0e"/></linearGradient><radialGradient cx="287.83" cy="1.808" r="50.36" id="H" xlink:href="#G" gradientUnits="userSpaceOnUse"/><radialGradient cx="287.83" cy="1.808" r="50.36" id="G" gradientUnits="userSpaceOnUse"><stop stop-color="#a80d00"/><stop stop-color="#a80d00"/><stop offset=".99" stop-color="#7e0e08"/><stop offset="1" stop-color="#7e0e08"/></radialGradient><radialGradient cx="218.09" cy="68.17" r="66.944" id="F" xlink:href="#I" gradientUnits="userSpaceOnUse"/><radialGradient cx="218.09" cy="68.17" r="66.944" id="I" gradientUnits="userSpaceOnUse"><stop stop-color="#a30c00"/><stop stop-color="#a30c00"/><stop offset=".99" stop-color="#800e08"/><stop offset="1" stop-color="#800e08"/></radialGradient></defs><g transform="matrix(.20245 0 0 .20245-25.14 19.706)" fill-rule="evenodd"><path transform="translate(144-77.58)" d="m198.13 39.95l-44.63 90.46-113.12 67.17 146.47-9.94" fill="url(#2)"/><path transform="translate(144-77.58)" d="m140.21 145.93l46.88 41.61-12.59-86.89z" fill="url(#B)"/><path transform="translate(144-77.58)" d="m40.87 197.39l146.39-9.85-92.23-7.24z" fill="url(#C)"/><path transform="translate(144-77.58)" d="m13.34 132.77l27.66 64.64 23.04-75.48" fill="url(#9)"/><path transform="translate(144-77.58)" d="m58.33 120.01l81.87 26.17-21.2-83.04" fill="url(#D)"/><path transform="translate(144-77.58)" d="m120 69.1l73.32-4.79-57.35-46.84" fill="url(#5)"/><path transform="translate(144-77.58)" d="m111.49.52l55.01.25-33.73 18.64" fill="url(#8)"/><path transform="translate(144-77.58)" d="m2.7 101.62l-2.7 56.47 14.13-25.77" fill="url(#7)"/><path d="m145.94 23.07l11.5 32.62 49.97-11.211 57.05-53.02 16.1-51.14-25.351-17.9-43.1 16.13c-13.579 12.63-39.929 37.62-40.879 38.09-.94.48-17.4 31.59-25.29 46.43" fill="#fff"/><path d="m186.32-35.53c29.43-29.18 67.37-46.42 81.93-31.73 14.551 14.69-.88 50.39-30.31 79.56-29.43 29.17-66.9 47.36-81.45 32.67-14.56-14.68.4-51.33 29.83-80.5" fill="url(#3)"/><path d="m185 119.8l22.86-75.72 75.92 24.39c-27.45 25.74-57.98 47.5-98.78 51.33" fill="url(#4)"/><path d="m264.56-8.69l19.49 77.2c22.93-24.11 43.51-50.03 53.589-82.09l-73.08 4.89" fill="url(#0)"/><path d="m337.44-13.19c7.8-23.54 9.6-57.31-27.18-63.58l-30.18 16.67 57.36 46.91" fill="url(#A)"/><path d="m144 80.17c1.08 38.851 29.11 39.43 41.05 39.771l-27.58-64.41-13.47 24.64" fill="#9e1209"/><path d="m264.67-8.57c17.62 10.83 53.13 32.58 53.851 32.98 1.119.63 15.31-23.93 18.53-37.81l-72.38 4.83" fill="url(#H)"/><path d="m207.83 44.08l30.56 58.96c18.07-9.8 32.22-21.74 45.18-34.53l-75.74-24.43" fill="url(#F)"/><path d="m157.35 55.61l-4.33 51.56c8.17 11.16 19.41 12.13 31.2 11.26-8.53-21.23-25.57-63.68-26.87-62.82" fill="url(#6)"/><path d="m279.9-59.97l60.71 8.52c-3.24-13.73-13.19-22.59-30.15-25.36l-30.56 16.84" fill="url(#1)"/></g></svg>
